packages/foundations/assets/icons/functional/images/social/face_smiling_20.svg

<svg xmlns="http://www.w3.org/2000/svg" width="20" height="20" fill="none"><g clip-path="url(#a)"><path fill="#1A1C1F" fill-rule="evenodd" d="M10 3a7 7 0 1 1 0 14 7 7 0 0 1 0-14m0 2c-2.757 0-5 2.243-5 5s2.243 5 5 5 5-2.243 5-5-2.243-5-5-5m2.018 5.72a.998.998 0 0 1 .677 1.736c-.116.107-1.18 1.043-2.698 1.043s-2.576-.929-2.692-1.035a.994.994 0 0 1-.066-1.401c.367-.41.997-.442 1.409-.08.006.005.597.517 1.35.517.741 0 1.328-.5 1.352-.521a1 1 0 0 1 .668-.259M8 7a1.25 1.25 0 1 1 0 2.5A1.25 1.25 0 0 1 8 7m4 0a1.25 1.25 0 1 1 0 2.5A1.25 1.25 0 0 1 12 7" clip-rule="evenodd"/></g><defs><clipPath id="a"><path fill="#fff" d="M0 0h20v20H0z"/></clipPath></defs></svg>

<svg width="20" height="20" viewBox="0 0 20 20" fill="none" xmlns="http://www.w3.org/2000/svg">
<g clip-path="url(#clip0_187_399)">
<path fill-rule="evenodd" clip-rule="evenodd" d="M10 3C13.866 3 17 6.134 17 10C17 13.866 13.866 17 10 17C6.134 17 3 13.866 3 10C3 6.134 6.134 3 10 3ZM10 5C7.243 5 5 7.243 5 10C5 12.757 7.243 15 10 15C12.757 15 15 12.757 15 10C15 7.243 12.757 5 10 5ZM12.018 10.72C12.289 10.72 12.558 10.829 12.755 11.043C13.129 11.45 13.102 12.083 12.695 12.456C12.579 12.563 11.515 13.499 9.997 13.499C8.479 13.499 7.421 12.57 7.305 12.464C6.9 12.094 6.873 11.471 7.239 11.063C7.606 10.653 8.236 10.621 8.648 10.983C8.654 10.988 9.245 11.5 9.998 11.5C10.739 11.5 11.326 11 11.35 10.979C11.54 10.806 11.78 10.721 12.018 10.72ZM8 7C8.69036 7 9.25 7.55964 9.25 8.25C9.25 8.94036 8.69036 9.5 8 9.5C7.30964 9.5 6.75 8.94036 6.75 8.25C6.75 7.55964 7.30964 7 8 7ZM12 7C12.6904 7 13.25 7.55964 13.25 8.25C13.25 8.94036 12.6904 9.5 12 9.5C11.3096 9.5 10.75 8.94036 10.75 8.25C10.75 7.55964 11.3096 7 12 7Z" fill="#1A1C1F"/>
</g>
<defs>
<clipPath id="clip0_187_399">
<rect width="20" height="20" fill="white"/>
</clipPath>
</defs>
</svg>
